images/time.svg

<svg width="50" height="50" viewBox="0 0 50 50" fill="none" xmlns="http://www.w3.org/2000/svg">
<path fill-rule="evenodd" clip-rule="evenodd" d="M35.125 25C35.125 19.9452 30.6991 15.625 25 15.625C19.3009 15.625 14.875 19.9452 14.875 25C14.875 30.0548 19.3009 34.375 25 34.375C30.6991 34.375 35.125 30.0548 35.125 25ZM37 25C37 18.7978 31.6192 13.75 25 13.75C18.3808 13.75 13 18.7978 13 25C13 31.2022 18.3808 36.25 25 36.25C31.6192 36.25 37 31.2022 37 25Z" fill="#72B33B"/>
<path fill-rule="evenodd" clip-rule="evenodd" d="M24.0625 19.375H25.9375V24.0625H29.5V25.9375H24.0625V19.375Z" fill="#72B33B"/>
<path opacity="0.1" fill-rule="evenodd" clip-rule="evenodd" d="M25 50C38.8071 50 50 38.8071 50 25C50 11.1929 38.8071 0 25 0C11.1929 0 0 11.1929 0 25C0 38.8071 11.1929 50 25 50Z" fill="#72B33B"/>
</svg>

<svg width="50" height="50" fill="none" xmlns="http://www.w3.org/2000/svg"><path fill-rule="evenodd" clip-rule="evenodd" d="M35.125 25c0-5.055-4.426-9.375-10.125-9.375-5.7 0-10.125 4.32-10.125 9.375S19.301 34.375 25 34.375c5.7 0 10.125-4.32 10.125-9.375ZM37 25c0-6.202-5.38-11.25-12-11.25S13 18.798 13 25s5.38 11.25 12 11.25S37 31.202 37 25Z" fill="#72B33B"/><path fill-rule="evenodd" clip-rule="evenodd" d="M24.063 19.375h1.875v4.688H29.5v1.875h-5.438v-6.563Z" fill="#72B33B"/><path opacity=".1" fill-rule="evenodd" clip-rule="evenodd" d="M25 50c13.807 0 25-11.193 25-25S38.807 0 25 0 0 11.193 0 25s11.193 25 25 25Z" fill="#72B33B"/></svg>
